X:1
T:St. Peter (Decius), LM
T:St. Peter (Decius), LM
T:Arranged from Nicolas Decius (1485-1541)
T:Public Domain Courtesy of the Cyber Hymnal™
C:Arranged from Nicolas Decius (1485-1541)
Z:Public Domain
Z:Courtesy of the Cyber Hymnal™
%%score ( 1 2 ) ( 3 4 )
L:1/8
Q:1/4=103
M:2/4
K:F
V:1 treble 
V:2 treble 
V:3 bass 
V:4 bass 
V:1
 (FG) | [FA]2 [FB]2 | [Ec]2 B2 | [FA]2 G2 | [FA]2 [FA]2 | A2 G[^FA] | [GB]2 G2 | F2 G2 | %8
 !fermata!F2 (FG) | [FA]2 [FB]2 | [Fc]2 B2 | A2 [EG]2 | [EA]2 [FA]2 | A2 G[^FA] | [GB]2 G2 | %15
 F2 G2 | !fermata!F4 |] %17
V:2
 F2 | x4 | x2 (FG) | x2 (FE) | x4 | (E^F) G x | x2 (DE) | F2 FE | F2 F2 | x4 | x2 (FG) | A2 x2 | %12
 x4 | (E^F) G x | x2 DE | F2 (FE) | F4 |] %17
V:3
 (A,B,) | C2 [D,B,]2 | (B,A,) ([D,D][E,C]) | [F,C]2 [C,C]2 | [F,C]2 [D,D]2 | [A,^C]2 D2 | %6
 [E,D]2 (DC) | C2 [C,B,]2 | !fermata![F,A,]2 (A,B,) | C2 [D,B,]2 | [C,A,]2 ([D,D][E,C]) | %11
 (CF) (ED) | [A,^C]2 D2 | [A,^C]2 D2 | [G,D]2 [B,,B,]2 | (A,C) [C,B,]2 | !fermata![F,A,]4 |] %17
V:4
 F,2 | (F,E,) x2 | C,2 x2 | x4 | x4 | x2 (B,A,) | x2 B,,2 | A,,B,, x2 | x2 F,2 | F,E, x2 | x4 | %11
 F,2 B,2 | x2 F,G, | x2 (B,A,) | x4 | C,2 x2 | x4 |] %17

